X: 35289
T: Rose Of Fylde, The
R: strathspey
M: 4/4
K: Dmajor
D2 DE F2 FA|B>AB<d E2 FE|D2 DE F3 A|B>de<f e2 cA|
BcdB G2 G<B|A<dF<D E2 FA|B2 Bc BAFA|B2 E2 E2||
B2 BA E3 F|A>FA<B A2 FE|D2 de f3 d|B>AB<d e2 dc|
B>cd<B G2 G<B|A<dF<D E2 FA|B2 Bc BAFA|B2 E2 E2:|

